public/accounts/email.svg

<svg viewBox="0 0 24 24" xmlns="http://www.w3.org/2000/svg"><path d="m0 0h24v24h-24z" opacity="0"/><path d="m19 4h-14a3 3 0 0 0 -3 3v10a3 3 0 0 0 3 3h14a3 3 0 0 0 3-3v-10a3 3 0 0 0 -3-3zm-.67 2-6.33 4.75-6.33-4.75zm.67 12h-14a1 1 0 0 1 -1-1v-9.75l7.4 5.55a1 1 0 0 0 .6.2 1 1 0 0 0 .6-.2l7.4-5.55v9.75a1 1 0 0 1 -1 1z"/></svg>

<svg xmlns="http://www.w3.org/2000/svg" viewBox="0 0 24 24"><g data-name="Layer 2"><g data-name="email"><rect width="24" height="24" opacity="0"/><path d="M19 4H5a3 3 0 0 0-3 3v10a3 3 0 0 0 3 3h14a3 3 0 0 0 3-3V7a3 3 0 0 0-3-3zm-.67 2L12 10.75 5.67 6zM19 18H5a1 1 0 0 1-1-1V7.25l7.4 5.55a1 1 0 0 0 .6.2 1 1 0 0 0 .6-.2L20 7.25V17a1 1 0 0 1-1 1z"/></g></g></svg>
